!!!COM: Bach, Johann Sebastian
!!!OPR: Das wohltemperirte Clavier, Band II
!!!XEN: Well-Tempered Clavier, Volume II
!!!OTL: Prelude in A Major
!!!OMV: Prelude XIX
!!!SCT: BWV 888
!!!SCA: Thematisch-systematisches Verzeichnis der musikalischen Werke Johann Sebastian Bach: Bach-Werke-Verzeichnis (Schmieder)
!!!YOR: Bach Gesellschaft Edition xiv
!!!EED: Walter Hewlett
!!!ENC: Walter Hewlett
!!!CDT: 1685/3//-1750/7/28/
!!!OCY: Deutschland
!!!YEC: Copyright (c) 1994, 2000 Center for Computer Assisted Research in the Humanities
!!!YEM: Rights to all derivative editions reserved
!!!YEM: Refer to licensing agreement for further details
!!!YEN: United States of America
**kern
*I:
*clefG6
*k[f#c#g#]
*A:
*M12/8
=1-
*^
*^	*
8e/L	2r	4A\
8a/	.	.
8g#/J	.	8E\
8a/L	.	4C#\
8cc#/	8A\L	.
8b/J	8e\	8E\
[2.cc#/	8d\J	4AA/
.	8e\L	.
.	8g#\	8BB/
.	8f#\J	4C#/
.	4ryy	.
.	.	8AA/
=2	=2	=2
8cc#/L]	[2.g#\	4E\
8b/	.	.
8a/J	.	8EE/
8b/L	.	4EE/
8dd/	.	.
8cc#/J	.	8E\
[2.dd/	8g#\L]	4E\
.	8f#\	.
.	8e\J	8D\
.	8f#\L	4C#/
.	8a\	.
.	8g#\J	8BB/
=3	=3	=3
8dd/L]	[1.a\	8AA\L
8cc#/	.	8A\
8b/J	.	8G#\J
8cc#/L	.	8A\L
8ee/	.	8c#\
8dd/J	.	8B\J
8ee/L	.	8c#\L
8dd/	.	8B\
8cc#/J	.	8A\J
8dd/L	.	8B\L
8ff#/	.	8d\
8ee/J	.	8c#\J
=4	=4	=4
[4.ff#/	8a\L]	4d\
.	8b\	.
.	8cc#\J	8c#\
8ff#/L]	[4.dd\	4B\
8gg#/	.	.
8aa/J	.	8A\
8bb/	8dd\L]	4G#\
[4ee/	8cc#\	.
.	8b\J	8r
8ee/L]	[4.cc#\	4A\
8ff#/	.	.
8gg#/J	.	8r
=5	=5	=5
8aa/	8cc#\L]	4F#\
[4dd/	8b\	.
.	8a\J	8r
8dd/L]	[4.b\	4G#\
8ee/	.	.
8dd/J	.	8r
8cc#/L	4b\]	4A\
8dd/	.	.
8ee/J	8a\	8C#/
8dd/L	4g#\	4BB/
8ee/	.	.
8cc#/J	[8a\	8AA/
=6	=6	=6
4.b/	8a\L]	8EE\L
.	8g#\	8E\
.	8f#\J	8D#\J
[4.ee/	8g#\L	8E\L
.	8b\	8G#\
.	8a\J	8F#\J
8ee/L]	[4.b\	[4.G#\
8ff#/	.	.
8ee/J	.	.
4ddT/	4b\]	8G#\L]
.	.	8B\
8cc#/	[8f#\	8A#\J
=7	=7	=7
[4.dd/	8f#\L]	8B\L
.	8b\	8d\
.	8a#\J	8c#\J
8dd/L]	[4.b\	8d\L
8dd/	.	8f#\
8cc#/J	.	8e\J
[4.dd/	8b\L]	[4.f#\
.	8an\	.
.	8g#\J	.
4dd/]	8a\L	8f#\L]
.	8cc#\	8a\
8bb/	8b\J	8g#\J
=8	=8	=8
8ee/L	4cc#\	4a\
8ff#/	.	.
8ee/J	8b\	8g#\
8dd#/L	[4.a\	4f#\
8ee/	.	.
8ff#/J	.	8e\
4b/	4a\]	8d#\L
.	.	8B\
8cc#/	8g#\	8e\J
8a/L	[4.f#\	4e\
8g#/	.	.
8a/J	.	8d#\
=9	=9	=9
4g#/	8f#\L]	8e\L
.	8d#\	8B\
8a/	[8e\J	8c#\J
8g#/L	4e\]	8B\L
16f#/L	.	8G#\
16e/J	.	.
8f#/J	8d#\	8A\J
8bb/L	4e\	[4.G#\
8ee/	.	.
8ff#/J	8r	.
8ee/L	4.r	4G#\]
8cc#/	.	.
8ddn/J	.	8E\
=10	=10	=10
4cc#/	8a\L	[4.A\
.	8e\	.
8a/	8f#\J	.
[4.ggn/	8e\L	4A\]
.	8c#\	.
.	8d\J	8B\
8gg/L]	8c#\	8A\L
8cc#/	8r	8E\
8dd/J	8r	8F#\J
8cc#/L	4.r	8E\L
8a#/	.	8C#\
8b/J	.	8D\J
=11	=11	=11
[2.ee/	8c#\L	4.C#/
.	8g#\	.
.	8f#\J	.
.	8g#\L	8r
.	8b\	8r
.	8a#\J	8FF#/
8ee/L]	[2.b\	8BB\L
8dd/	.	8F#\
8cc#/J	.	8E\J
4dd/	.	8F#\L
.	.	8A\
8ee/	.	8G#\J
=12	=12	=12
[2.cc#/	8b\L]	4.A\
.	8e\	.
.	8d\J	.
.	8e\L	8r
.	8g#\	8r
.	8f#\J	8AA/
8cc#/L]	[2.g#\	8EE#/L
8b/	.	8D/
8a/J	.	8C#/J
4b/	.	8D#\L
.	.	8F#\
8cc#/	.	8E#\J
=13	=13	=13
[4.a/	8g#\L]	8F#\L
.	8f#\	8A\
.	8e#\J	8G#\J
4a/]	[4.f#\	8A\L
.	.	8c#\
8dd/	.	8B\J
4g#/	8f#\]	[2.c#\
.	[4e#\	.
8cc#/	.	.
[4.dd/	8e#\L]	.
.	8f#\	.
.	8g#\J	.
=14	=14	=14
8dd/L]	[4.a\	1.c#\]
8b#/	.	.
8cc#/J	.	.
[4.ff#/	8a\L]	.
.	8g#\	.
.	8f#\J	.
8ff#/L]	[4.g#\	.
8dd#/	.	.
8ee#/J	.	.
[4.aa/	8g#\L]	.
.	8e#\	.
.	8f#\J	.
=15	=15	=15
8aa/L]	[2.b\	[4.d\
8gg#/	.	.
8ff#/J	.	.
8gg#/L	.	8d\L]
8aa/	.	8c#\
8bb/J	.	8B\J
8ee#/L	4b\]	[4.c#\
8cc#/	.	.
[8ff#/J	8a\	.
8ff#/L]	4.g#\	4c#\]
8gg#/	.	.
8ee#/J	.	8C#/
=16	=16	=16
4ff#/	[4.a\	8F#\L
.	.	8A\
8cc#/	.	8G#\J
[4.ff#/	4a\]	8A\L
.	.	8c#\
.	8a\	8B\J
8ff#/L]	[4.g#\	[4.c#\
8ee/	.	.
8dd/J	.	.
[4.ee/	8g#\L]	8c#\L]
.	8a\	8B\
.	8g#\J	8c#\J
=17	=17	=17
8ee/L]	[4.f#\	8d\L
8g#/	.	8B\
8a/J	.	8c#\J
[4.dd/	4f#\]	8B\L
.	.	8G#\
.	8f#\	8A\J
8dd/L]	[4.e\	8G#\L
8cc#/	.	8E\
8b/J	.	8F#\J
[4.cc#/	4e\]	8Gn\L
.	.	8A\
.	8e\	8G\J
=18	=18	=18
8cc#/L]	[4.d\	8F#\L
8b/	.	8D\
8a/J	.	8E\J
[4.b/	4d\]	8Fn\L
.	.	8Gn\
.	8d\	8F\J
8b/L]	4.c#\	8E\L
8g#/	.	8Fn\
[8a/J	.	8E\J
4a/]	8cn\L	8D#\L
.	8B\	8E\
8a/	8c\J	8D#\J
=19	=19	=19
(8a/	4.B\	8E/L
[4g#/)	.	8BB/
.	.	8C#/J
4g#/]	8r	8BB/L
.	8r	8GG#/
8r	8e\	8AA/J
2r	8b\L	[4.GG#/
.	8e\	.
.	8f#\J	.
.	8e\L	4GG#/]
4ryy	8c#\	.
.	8d\J	8EE/
=20	=20	=20
8e/L	4c#\	4.AA/
8a/	.	.
8g#/J	8B\	.
8a/L	4c#\	4.r
8cc#/	.	.
8b/J	8d\	.
4cc#/	8e\L	4.AA/
.	8a\	.
8b/	8g#\J	.
8cc#/L	8a\L	4.r
8ee/	8cc#\	.
8dd/J	8b\J	.
=21	=21	=21
16ee/LL	[4.cc#\	8A\L
16ff#/JJ	.	.
[4ggn/	.	8E\
.	.	8F#\J
4gg/]	4cc#\]	8E\L
.	.	8C#\
8a/	8r	8D\J
8ee/L	2r	[4.C#/
8a/	.	.
8b/J	.	.
8a/L	.	4C#/]
8f#/	4ryy	.
8gn/J	.	8AA/
=22	=22	=22
4f#/	8A\L	4D/
.	8d\	.
8r	8c#\J	8AA/
4.r	8d\L	4FF#/
.	8f#\	.
.	8e\J	8AA/
8d/L	[2.f#\	4DD/
8a/	.	.
8gn/J	.	8EE/
8a/L	.	4FF#/
8cc#/	.	.
8b/J	.	8DD/
=23	=23	=23
[2.cc#/	8f#\L]	4AA/
.	8e\	.
.	8d\J	8A\
.	8e\L	4A\
.	8gn\	.
.	8f#\J	8AA/
8cc#/L]	[2.gn\	4E\
8b/	.	.
8a#/J	.	8e\
8b/L	.	4e\
8dd/	.	.
8cc#/J	.	8A#\
=24	=24	=24
[1.dd/	8g\L]	8B\L
.	8f#\	8BB\
.	8e\J	8C#\J
.	8f#\L	8D\L
.	8a#\	8C#\
.	8g#\J	8BB\J
.	8a#\L	8F#\L
.	8g#\	8E\
.	8f#\J	8D\J
.	8g#\L	8E\L
.	8b\	8Gn\
.	8a#\J	8F#\J
=25	=25	=25
8dd/L]	[4.b\	4Gn\
8ee/	.	.
8ff#/J	.	8F#\
[4.ggn/	8b\L]	4E\
.	8cc#\	.
.	8dd\J	8D\
8gg/L]	8ee\	4C#/
8ff#/	[4a\	.
8ee/J	.	8r
[4.ff#/	8a\L]	4D/
.	8b\	.
.	8cc#\J	8r
=26	=26	=26
8ff#/L]	8dd\	4BB/
8ee/	[4gn\	.
8dd/J	.	8r
[4.ee/	8g\L]	4C#/
.	8a\	.
.	8g\J	8r
4ee/]	8f#\L	4D/
.	8g\	.
8dd/	8a\J	8FF#/
4cc#/	8g\L	4EE/
.	8a\	.
[8dd/	8f#\J	8DD/
=27	=27	=27
8dd/L]	4.e\	8AA\L
8cc#/	.	8A\
8b/J	.	8G#\J
8cc#/L	[4.a\	8A\L
8ee/	.	8c#\
8dd/J	.	8B\J
[4.ee/	8a\L]	[4.c#\
.	8b\	.
.	8a\J	.
4ee/]	8gn\L	4c#\]
.	8a\	.
8ff#/	8f#\J	8d#\
=28	=28	=28
8b/L	[4.gn\	8E\L
8ee/	.	8Gn\
8dd#/J	.	8F#\J
[4.ee/	8g\L]	8G\L
.	8f#\	8B\
.	8g\J	8A#\J
8ee/L]	[4.f#\	[4.B\
8ddn/	.	.
8cc#/J	.	.
8dd/L	4f#\]	8B\L]
8ff#/	.	8d\
8ee/J	8a\	8c#\J
=29	=29	=29
4ff#/	8f#\L	4d\
.	8g#\	.
8ee/	[8a\J	8c#\
[4.dd/	8a\L]	4B\
.	8g#\	.
.	8b\J	8A\
4dd/]	4.e\	8G#\L
.	.	8E\
8cc#/	.	[8A\J
4f#/	4.d\	8A\L]
.	.	8F#\
[8b/	.	8G#\J
=30	=30	=30
8b/L]	4.c#\	4A\
8e/	.	.
[8a/J	.	8F#\
8a/L]	4.B\	4D\
8b/	.	.
8g#/J	.	8E\
4.a/	8A/L	[2.AA\
.	8E/	.
.	8F#/J	.
4.r	8E/L	.
.	8C#/	.
.	8D/J	.
=31	=31	=31
8A/L	4C#/	1.AA\_
8e/	.	.
8d/J	8r	.
8e/L	4.r	.
8gn/	.	.
8f#/J	.	.
[4.g/	8e\L	.
.	8A/	.
.	8B/J	.
8g/L]	8A/L	.
8a/	8F#/	.
8c#/J	8Gn/J	.
=32	=32	=32
8d/L	8F#/L	2.AA\_
8f#/	8D/	.
8e/J	8C#/J	.
8f#/L	8D/L	.
8a/	8F#/	.
8gn/J	8E/J	.
8a/L	8F#/L	4AA\]
8dd/	8f#\	.
8cc#/J	8e\J	8A\
8dd/L	8f#\L	4A\
8ff#/	8dd\	.
8ee/J	8cc#\J	8AA/
=33	=33	=33
8ff#/L	[4.ff#\ [4.dd\	[2.AA/
8aa/	.	.
8gg#/J	.	.
[4.aa/	8ff#\L] 8dd\]	.
.	8ee\ 8cc#\	.
.	8dd\J 8b\	.
2.aa/]	2.ee\ 2.cc#\	8AA/L]
.	.	8C#/
.	.	8E/J
.	.	4.A\
==|!	==|!	==|!
*-	*-	*-
!!!RWG: Key is interpreted using the Humdrum key tool.
!!!AFT: stage2
!!!END: 1994/02/14/
!!format changes:
!!content changes:
!!public access: complete
!!!KEY: 3599838686
!!!EMD: Converted from MuseData to Humdrum Dec 19, 2000, by Andreas Kornstaedt using muse2kern.
